vanish-quarter.svg

<svg fill="currentColor" viewBox="0 0 24 24"><path d="M11 3h2v5h-2zM4.9 6.3l1.4-1.4 2.8 2.8-1.3 1.5zM8 13H3v-2h5z"/></svg>

<svg  viewBox="0 0 24 24" fill="currentColor"><path  d="M11 3H13V8H11V3M4.9 6.3L6.3 4.9L9.1 7.7L7.8 9.2L4.9 6.3M8 13H3V11H8V13"/></svg>
